X:11
T:Croppie's March
Z: id:dc-polka-41
M:2/4
L:1/8
K:G Major
E|D>E DB,|DE GA|Bd AB/A/|GE EG/E/|!
D>E DB,|DE GA|Bd AB/A/|G2 G:|!
A|Bd dB|ce ed/c/|Bd AB/A/|GE EA|!
Bd dB|ce ee/f/|g/f/e fd|e2 e>f|!
g/f/e fd|e/f/e/d/ BA|Bd AB/A/|GE EG/E/|!
D>E DB,|DE GA|Bd AB/A/|G2 G|]!

